X: 11798
T: Ellen O'Dwyer's
R: slide
M: 12/8
K: Adorian
|:B/c/d|e2 A AGA ede gfe|d2 G GFG BGB dBd|
e2 A A^GA ede gfe|dge dcB A3 A:|
eg|aba age aga b2 a|gag ged ede g2 e|
aba age aga b2 a|gfg edB A3 Aeg|
a2 a age a^ga b2 e|g2 g ged e^de g2 b|
ac'/b/a age c'ba b2 a|gfe dcB A3- A||

